X:1
T:Minuet in A. Hob:IX:8 Nº 6
T: Minuet in A. Hob:IX:8 Nº 6
T:Joseph Haydn (1732-1809)
C:Joseph Haydn (1732-1809)
%%score { 1 | 2 }
L:1/8
Q:1/4=116
M:3/4
K:A
V:1 treble nm="Grand Piano" snm="Pno."
V:2 bass 
V:1
|:!mf!"^Allegretto" [Bg]2 | [Aa]2 e2 c2 | f2 ^d2 B2 | e2 e2 e2 | (e4 [^E^e]2) | %5
 (f2 =d2) !wedge!B2 | (d2 B2) !wedge!G2 | [CA]2 [CA]2 [CA]2 | [CA]4 ::!p! z2 | z6 | z2{a} gfge | %12
 a2 z4 | z2{d'} c'bc'a |!f! (d'2 b2) !wedge!e2 | (c'2 a2) !wedge!e2 | (f2 [db]2) !wedge![Bg]2 | %17
 [Aa]2 z2 :| %18
V:2
|:!mp! E,2 | A,,2 A,2 A,2 | [A,B,]2 [A,B,]2 [A,B,]2 | G,2 B,2 ^D2 | E2 E,2 C2 | =D2 z4 | %6
 [E,B,D]2 [E,D]2 [E,D]2 | A,,2 C,2 E,2 | A,2 G,,2 ::[K:treble]!p! [CA] z | %10
 !wedge![EB]2 !wedge![EB]2 !wedge![EB]2 | [EB]2 z2 [EB]2 | [Ac]2 [Ac]2 [Ac]2 | %13
 [Ac]2 z2[K:bass] A,2 |!mf! G,2 B,2 E2 | A,2 C2 C,2 | (D,2 B,,2) E,2 | A,,2 A,2 :| %18

